resources/icons/16px/model.svg

<svg width="16" height="16" viewBox="0 0 16 16" fill="none" xmlns="http://www.w3.org/2000/svg">
<path fill-rule="evenodd" clip-rule="evenodd" d="M14.7446 14H1.25488C0.549369 14 -0.0263549 13.4183 0.000931603 12.7043C0.0580369 11.2101 0.222669 8.659 0.699642 6.42037C0.954555 5.22396 1.29876 4.11666 1.76347 3.30863C2.23949 2.48093 2.82288 2 3.52896 2C4.28143 2 4.85057 2.30546 5.3064 2.77512C5.76123 3.24376 6.09671 3.86946 6.38391 4.49417C6.46471 4.66992 6.54954 4.86524 6.63214 5.05542L6.63474 5.0614C6.82689 5.50382 7.0066 5.91483 7.17383 6.21244C7.2873 6.41439 7.42465 6.62474 7.5984 6.78116C7.75653 6.9235 7.9188 7 8.12625 7C8.83304 7 9.2469 6.56381 9.63124 6.11936L9.63395 6.11623C9.66747 6.07746 9.70506 6.03399 9.7411 5.99367C9.96315 5.74527 10.2023 5.49526 10.5122 5.30856C10.82 5.12318 11.1977 5 11.7019 5C12.2773 5 12.8085 5.32545 13.2933 5.87755C13.7722 6.42291 14.1938 7.17591 14.5579 8.00503C15.2181 9.50866 15.6876 11.2593 15.9675 12.4732C16.1498 13.2639 15.5415 14 14.7446 14Z" fill="#5F6B7C"/>
</svg>

<svg xmlns="http://www.w3.org/2000/svg" viewBox="0 0 16 16">
  <path d="M14.745 14H1.255A1.25 1.25 0 0 1 0 12.704C.058 11.21.223 8.66.7 6.42c.255-1.196.599-2.303 1.063-3.111C2.24 2.48 2.823 2 3.53 2c.752 0 1.322.305 1.777.775.455.469.79 1.094 1.078 1.72.08.175.166.37.248.56l.003.006c.192.443.372.854.539 1.151.113.202.25.413.424.57.159.141.32.218.528.218.707 0 1.12-.436 1.505-.88l.003-.004.107-.122c.222-.249.461-.499.771-.685.308-.186.686-.309 1.19-.309.575 0 1.107.325 1.591.878.48.545.9 1.298 1.265 2.127.66 1.504 1.13 3.254 1.41 4.468A1.25 1.25 0 0 1 14.744 14"/>
</svg>
